!!!!SEGMENT: pl-wn--sd-xvi-o-251_anonim--kancjonal-zamoyskich-piesn-o-narodzeniu-panskim-na-swiat-ojca-niebieskiego-pochwalmy-z-milosci.krn
!!!cenid: 15xx:809
!!!COM: Anonim
!!!COM-rismID:
!!!CDT:
!!!CNT:
!!!GTL: Kancjonał Zamoyskich
!!!OTL: Pieśń o narodzeniu pańskim na świat/Ojca niebieskiego pochwalmy z miłości
!!!PDT: 1558
!!!AGN:
!!!SMS-siglum: PL-Wn
!!!SMS-shelfmark: SD XVI.O.251
!!!SMS-shelfwork: G
!!!SMS-variant:
!!!SMS-altvar:
!!!NIFC-rismSourceID: 990072137
!!!NIFC-islandoraID:
!!!URL-pdf-islandora:
!!!URL-scan: https://polona.pl/item/piesn-o-narodzeniu-panskim-na-swiat,MTE3MjI4Nw/3/#info:metadata @EN{Scan on Polona} @PL{Skany w portalu Polona}
!!!ONB-nifc: UWAGA: proszę zapisywać tylko teksty występujące bezpośrednio pod nutami
!!!AIN: 1 alto 1 bass 1 soprn 1 tenor
!!!key: F
**kern	**text	**mod-text	**text	**mod-text	**kern	**text	**mod-text	**text	**mod-text	**kern	**text	**mod-text	**text	**mod-text	**kern	**text	**mod-text	**text	**mod-text
*part4	*part4	*part4	*part4	*part4	*part3	*part3	*part3	*part3	*part3	*part2	*part2	*part2	*part2	*part2	*part1	*part1	*part1	*part1	*part1
*staff4	*staff4	*staff4	*staff4	*staff4	*staff3	*staff3	*staff3	*staff3	*staff3	*staff2	*staff2	*staff2	*staff2	*staff2	*staff1	*staff1	*staff1	*staff1	*staff1
*>[A,A,B]	*	*	*	*	*>[A,A,B]	*	*	*	*	*>[A,A,B]	*	*	*	*	*>[A,A,B]	*	*	*	*
*>A	*	*	*	*	*>A	*	*	*	*	*>A	*	*	*	*	*>A	*	*	*	*
*I"BAS.	*	*	*	*	*I"TENOR.	*	*	*	*	*I"ALT.	*	*	*	*	*I"CANTVS.	*	*	*	*
*I'B	*	*	*	*	*I'T	*	*	*	*	*I'A	*	*	*	*	*I'S	*	*	*	*
*Ibass	*	*	*	*	*Itenor	*	*	*	*	*Ialto	*	*	*	*	*Isoprn	*	*	*	*
*ICvox	*	*	*	*	*ICvox	*	*	*	*	*ICvox	*	*	*	*	*ICvox	*	*	*	*
*mI"Basso	*	*	*	*	*mI"Tenore II	*	*	*	*	*mI"Tenore I	*	*	*	*	*mI"Alto	*	*	*	*
*	*	*	*	*	*mI'T 2	*	*	*	*	*mI'T 1	*	*	*	*	*mI'A	*	*	*	*
*clefF4	*	*	*	*	*clefC4	*	*	*	*	*clefC3	*	*	*	*	*clefC1	*	*	*	*
*	*	*	*	*	*mclefGv2	*	*	*	*	*mclefGv2	*	*	*	*	*mclefG2	*	*	*	*
*k[b-]	*	*	*	*	*k[b-]	*	*	*	*	*k[b-]	*	*	*	*	*k[b-]	*	*	*	*
*F:	*	*	*	*	*F:	*	*	*	*	*F:	*	*	*	*	*F:	*	*	*	*
*M2/1	*	*	*	*	*M2/1	*	*	*	*	*M2/1	*	*	*	*	*M2/1	*	*	*	*
*met(C|)	*	*	*	*	*met(C|)	*	*	*	*	*met(C|)	*	*	*	*	*met(C|)	*	*	*	*
*mmet(c|)	*	*	*	*	*mmet(c|)	*	*	*	*	*mmet(c|)	*	*	*	*	*mmet(c|)	*	*	*	*
=1-	=1-	=1-	=1-	=1-	=1-	=1-	=1-	=1-	=1-	=1-	=1-	=1-	=1-	=1-	=1-	=1-	=1-	=1-	=1-
1F	Oy-	Oj-	Ʒe	Że	1F	Oy-	Oj-	Ʒe	Że	1c	Oy-	Oj-	Ʒe	Że	1.f	Oy-	Oj-	Ʒe	Że
2D/	.	.	.	.	2A/	.	.	.	.	2d\	.	.	.	.	.	.	.	.	.
2F\	-cá	-ca	nam	nam	2A/	-cá	-ca	nam	nam	2c\	-cá	-ca	nam	nam	2f/	-cá	-ca	nam	nam
=2-	=2-	=2-	=2-	=2-	=2-	=2-	=2-	=2-	=2-	=2-	=2-	=2-	=2-	=2-	=2-	=2-	=2-	=2-	=2-
2C/	nie-	nie-	ſy-	sy-	2G/	nie-	nie-	ſy-	sy-	2c\	nie-	nie-	ſy-	sy-	2e/	nie-	nie-	ſy-	sy-
2D/	-bie-	-bie-	-na	-na	2F/	-bie-	-bie-	-na	-na	2A/	-bie-	-bie-	-ná	-na	1d	-bie-	-bie-	-ná	-na
1AA	-ſkie-	-skie-	ſwe-	swe-	1E	-ſkie-	-skie-	ſwe-	swe-	1A	ſkie-	-skie-	ſwe-	swe-	.	.	.	.	.
.	.	.	.	.	.	.	.	.	.	.	.	.	.	.	2c/	-ſkie-	-skie-	ſwe-	swe-
=3-	=3-	=3-	=3-	=3-	=3-	=3-	=3-	=3-	=3-	=3-	=3-	=3-	=3-	=3-	=3-	=3-	=3-	=3-	=3-
1BB-	-go	-go	-go	-go	1D	-go	-go	-go/	-go	1F	-go/	-go	-go/	-go	1d	-go/	-go	-go/	-go
1FF	po-	po-	ʒe-	ze-	1C	po-	po-	ʒe-	ze-	1c	po-	po-	ʒe-	ze-	1a	po-	po-	ʒe-	ze-
=4-	=4-	=4-	=4-	=4-	=4-	=4-	=4-	=4-	=4-	=4-	=4-	=4-	=4-	=4-	=4-	=4-	=4-	=4-	=4-
2C/	-chwal-	-chwal-	-ſlał	-słał	2C/	-chwal-	-chwal-	-ſlał	-słał	2c\	-chwal-	-chwal-	-ſlał	-słał	2g/	-chwal-	-chwal-	-ſlał	-słał
*custos:FF	*	*	*	*	*	*	*	*	*	*	*	*	*	*	*	*	*	*	*
!LO:LB:g=original	!	!	!	!	!	!	!	!	!	!	!	!	!	!	!	!	!	!	!
1FF	-my/	-my	ʒ_wy-	z wy-	1F	-my	-my	ʒ_wy-	z wy-	1c	-my	-my	ʒ_wy-	z wy-	2.a\	-my	-my	ʒ_wy-	z wy-
.	.	.	.	.	.	.	.	.	.	.	.	.	.	.	4g\	.	.	.	.
*	*	*	*	*	*custos:G	*	*	*	*	*	*	*	*	*	*	*	*	*	*
2FF/	ʒ_mi-	z mi-	-ſo	-so-	2A/	ʒ_mi-	z mi-	-ſo-	-so-	2c\	ʒ_mi-	z mi-	-ſo-	-so-	1f/	ʒ_mi-	z mi-	-ſo-	-so-
!	!	!	!	!	!LO:LB:g=original	!	!	!	!	!	!	!	!	!	!	!	!	!	!
=5-	=5-	=5-	=5-	=5-	=5-	=5-	=5-	=5-	=5-	=5-	=5-	=5-	=5-	=5-	=5-	=5-	=5-	=5-	=5-
1C	-ło-	-ło-	.	-[koś-	1G	-ło-	-ło-	-ko-	-koś-	1c	-ło-	-ło-	-ko-	-koś-	.	.	.	.	.
*	*	*	*	*	*	*	*	*	*	*	*	*	*	*	*custos:e	*	*	*	*
!	!	!	!	!	!	!	!	!	!	!	!	!	!	!	!LO:LB:g=original	!	!	!	!
.	.	.	.	.	.	.	.	.	.	.	.	.	.	.	2e/	-ło-	-ło-	-ko-	-koś-
*	*	*	*	*	*	*	*	*	*	*custos:A	*	*	*	*	*	*	*	*	*
1FF	-ſci.	-ści	.	-ci.]	1F	-ſci.	-ści	-ſci.	-ci.	1A	-ſci/	-ści	-ſci/	-ci.	1f	-ſci.	-ści	-ſci/	-ci.
!	!	!	!	!	!	!	!	!	!	!LO:LB:g=original	!	!	!	!	!	!	!	!	!
=6:|!	=6:|!	=6:|!	=6:|!	=6:|!	=6:|!	=6:|!	=6:|!	=6:|!	=6:|!	=6:|!	=6:|!	=6:|!	=6:|!	=6:|!	=6:|!	=6:|!	=6:|!	=6:|!	=6:|!
*>B	*	*	*	*	*>B	*	*	*	*	*>B	*	*	*	*	*>B	*	*	*	*
1r	.	.	.	.	1r	.	.	.	.	1r	.	.	.	.	1r	.	.	.	.
!LO:TX:b:t=Repeticio.:mod=	!	!	!	!	!LO:TX:b:t=Repeticio.:mod=	!	!	!	!	!LO:TX:b:t=Repeticio:mod=	!	!	!	!	!LO:TX:b:t=Repeticio.:mod=	!	!	!	!
2F\	.	[Czcią	.	.	2A/	cʒcią	Czcią	.	.	2c/	cʒćią	Czcią	.	.	2f/	cʒcią	Czcią	.	.
2D/	.	so-	.	.	2A/	ſo-	so-	.	.	2d\	ſo-	so-	.	.	2f/	ſo-	so-	.	.
=7-	=7-	=7-	=7-	=7-	=7-	=7-	=7-	=7-	=7-	=7-	=7-	=7-	=7-	=7-	=7-	=7-	=7-	=7-	=7-
2G\	.	-bie	.	.	2B-/	-bie	-bie	.	.	2d\	-bie	-bie	.	.	2g/	-bie	-bie	.	.
2G\	.	rów-	.	.	2B-/	ro-	rów-	.	.	2d\	ro-	rów-	.	.	2g/	ro-	rów-	.	.
1C	.	-ne-	.	.	1c	-wne-	-ne-	.	.	1e	-wne-	-ne-	.	.	1g	-wne-	-ne-	.	.
=8-	=8-	=8-	=8-	=8-	=8-	=8-	=8-	=8-	=8-	=8-	=8-	=8-	=8-	=8-	=8-	=8-	=8-	=8-	=8-
1F	.	-go	.	.	1c	-go/	-go	.	.	1f	-go/	-go	.	.	1a	-go/	-go	.	.
*custos:BB	*	*	*	*	*	*	*	*	*	*	*	*	*	*	*	*	*	*	*
!LO:LB:g=original	!	!	!	!	!	!	!	!	!	!	!	!	!	!	!	!	!	!	!
4BB-/	.	a	.	.	1d	á	a	.	.	1f	á	a	.	.	1b-	á	a	.	.
4C/	.	.	.	.	.	.	.	.	.	.	.	.	.	.	.	.	.	.	.
4D/	.	.	.	.	.	.	.	.	.	.	.	.	.	.	.	.	.	.	.
4E/	.	.	.	.	.	.	.	.	.	.	.	.	.	.	.	.	.	.	.
=9-	=9-	=9-	=9-	=9-	=9-	=9-	=9-	=9-	=9-	=9-	=9-	=9-	=9-	=9-	=9-	=9-	=9-	=9-	=9-
2F\	.	wiel-	.	.	2c\	wiel-	wiel-	.	.	2f\	wiel-	wiel-	.	.	2a/	wiel-	wiel-	.	.
*	*	*	*	*	*custos:B	*	*	*	*	*	*	*	*	*	*custos:g	*	*	*	*
!	!	!	!	!	!LO:LB:g=original	!	!	!	!	!	!	!	!	!	!LO:LB:g=original	!	!	!	!
2G\	.	.	.	.	1B-	-mi	-mi	.	.	2d/	-mi	-mi	.	.	2.g/	-mi	-mi	.	.
2E-X/	.	-mi	.	.	.	.	.	.	.	4e-X\	mi-	mi-	.	.	.	.	.	.	.
.	.	.	.	.	.	.	.	.	.	4d\	.	.	.	.	4f/	.	.	.	.
2F\	.	mi-	.	.	2A/	mi-	mi-	.	.	4c/	.	.	.	.	1f/	mi-	mi-	.	.
.	.	.	.	.	.	.	.	.	.	4B-/	.	.	.	.	.	.	.	.	.
=10-	=10-	=10-	=10-	=10-	=10-	=10-	=10-	=10-	=10-	=10-	=10-	=10-	=10-	=10-	=10-	=10-	=10-	=10-	=10-
1C	.	-łe-	.	.	1G	-le-	-łe-	.	.	1c	-le-	-łe-	.	.	.	.	.	.	.
.	.	.	.	.	.	.	.	.	.	.	.	.	.	.	2e/	-łe-	-łe-	.	.
*	*	*	*	*	*	*	*	*	*	*custos:c	*	*	*	*	*	*	*	*	*
!	!	!	!	!	!	!	!	!	!	!LO:LB:g=original	!	!	!	!	!	!	!	!	!
1FF	.	-go	.	.	1F	-go/	-go	.	.	1c	-[g]o/	-[g]o	.	.	1f	-go/	-go	.	.
=11-	=11-	=11-	=11-	=11-	=11-	=11-	=11-	=11-	=11-	=11-	=11-	=11-	=11-	=11-	=11-	=11-	=11-	=11-	=11-
2F\	.	Jen	.	.	2A/	ien	Jen	.	.	2c/	ien	Jen	.	.	2f/	ien	Jen	.	.
2F\	.	się	.	.	2A/	ſie	się	.	.	2c/	ſie	się	.	.	2f/	ſie	się	.	.
*custos:D	*	*	*	*	*	*	*	*	*	*	*	*	*	*	*	*	*	*	*
!LO:LB:g=original	!	!	!	!	!	!	!	!	!	!	!	!	!	!	!	!	!	!	!
2D/	.	w Pan-	.	.	2B-/	w_pán-	w Pan-	.	.	2F/	w_pan-	w Pan-	.	.	2f/	w_pán-	w Pan-	.	.
2D/	.	-nie	.	.	2B-/	-nie	-nie	.	.	2F/	-nie	-nie	.	.	2d/	-[nie]	-[nie]	.	.
=12-	=12-	=12-	=12-	=12-	=12-	=12-	=12-	=12-	=12-	=12-	=12-	=12-	=12-	=12-	=12-	=12-	=12-	=12-	=12-
1C	.	wcie-	.	.	1c	wcie-	wcie-	.	.	1G	wćie-	wcie-	.	.	1e	wćie-	wcie-	.	.
1D	.	-lił	.	.	1F	-lił	-lił	.	.	1d	-lił/	-lił	.	.	1f	-lił/	-lił	.	.
*	*	*	*	*	*custos:F	*	*	*	*	*	*	*	*	*	*custos:d	*	*	*	*
!	!	!	!	!	!LO:LB:g=original	!	!	!	!	!	!	!	!	!	!LO:LB:g=original	!	!	!	!
=13-	=13-	=13-	=13-	=13-	=13-	=13-	=13-	=13-	=13-	=13-	=13-	=13-	=13-	=13-	=13-	=13-	=13-	=13-	=13-
2D/	.	gdy	.	.	2F/	gdy	gdy	.	.	2d\	gdy	gdy	.	.	2d/	gdy	gdy	.	.
2AA/	.	się	.	.	2A/	ſie	się	.	.	2c/	ſie	się	.	.	2f/	ſie	się	.	.
2C/	.	czas	.	.	2G/	cʒás	czas	.	.	2c/	cʒás	czas	.	.	2e/	cʒás	czas	.	.
2D/	.	na-	.	.	2F/	na-	na-	.	.	2B-/	ná-	na-	.	.	1d/	ná-	na-	.	.
=14-	=14-	=14-	=14-	=14-	=14-	=14-	=14-	=14-	=14-	=14-	=14-	=14-	=14-	=14-	=14-	=14-	=14-	=14-	=14-
1AA	.	peł-	.	.	1E	-peł-	peł-	.	.	1A	-peł-	peł-	.	.	.	.	.	.	.
.	.	.	.	.	.	.	.	.	.	.	.	.	.	.	2c/	-peł-	peł-	.	.
1BB-	.	-nił	.	.	1D	-nił/	-nił	.	.	1F	-nił/	-nił	.	.	1d	-nił/	-nił	.	.
=15-	=15-	=15-	=15-	=15-	=15-	=15-	=15-	=15-	=15-	=15-	=15-	=15-	=15-	=15-	=15-	=15-	=15-	=15-	=15-
1FF	.	te-	.	.	1C	te-	te-	.	.	1c	te-	te-	.	.	1a	te-	te-	.	.
*custos:C	*	*	*	*	*	*	*	*	*	*custos:c	*	*	*	*	*	*	*	*	*
!LO:LB:g=original	!	!	!	!	!	!	!	!	!	!LO:LB:g=original	!	!	!	!	!	!	!	!	!
2C/	.	-dy	.	.	2C/	-dy	-dy	.	.	2c/	-dy	-dy	.	.	2g/	-dy	-dy	.	.
!LO:MO:mod=[2FF	!	!	!	!	!LO:MO:mod=[2F	!	!	!	!	!LO:MO:mod=[2c	!	!	!	!	!LO:MO:mod=[2a	!	!	!	!
1FF/	.	się	.	.	2.F/	ſie	się	.	.	1c/	ſie	się	.	.	2.a/	ſie	się	.	.
=16-	=16-	=16-	=16-	=16-	=16-	=16-	=16-	=16-	=16-	=16-	=16-	=16-	=16-	=16-	=16-	=16-	=16-	=16-	=16-
!LO:MO:null:mod=2FF]	!	!	!	!	!LO:MO:null:mod=4F]	!	!	!	!	!LO:MO:null:mod=2c]	!	!	!	!	!LO:MO:null:mod=4a]	!	!	!	!
.	.	.	.	.	.	.	.	.	.	.	.	.	.	.	.	.	.	.	.
.	.	.	.	.	4G/	.	.	.	.	.	.	.	.	.	4g/	.	.	.	.
2FF/	.	na-	.	.	2A/	ná-	na-	.	.	2c/	ná-	na-	.	.	1f	ná-	na-	.	.
1C	.	-ro-	.	.	1G	-ro-	-ro-	.	.	1c	-ro-	-ro-	.	.	.	.	.	.	.
.	.	.	.	.	.	.	.	.	.	.	.	.	.	.	2e/	-[ro-	-[ro-	.	.
=17-	=17-	=17-	=17-	=17-	=17-	=17-	=17-	=17-	=17-	=17-	=17-	=17-	=17-	=17-	=17-	=17-	=17-	=17-	=17-
0FFl	.	-dził.]	.	.	0Fl\	-[dził].	-[dził.]	.	.	0Al	-dźił.	-dził.	.	.	0fl	-dził]	-dził.]	.	.
==	==	==	==	==	==	==	==	==	==	==	==	==	==	==	==	==	==	==	==
*-	*-	*-	*-	*-	*-	*-	*-	*-	*-	*-	*-	*-	*-	*-	*-	*-	*-	*-	*-
!!!system-decoration: [(*)]
!!LO:MO:ori
!!!RDF**kern: l = terminal long
!!LO:MO:end
!!!filter-modern: sic -sq | shed -e "s/TX(.*):t=P:/tx$1:t=P:/LG" | shed -k -e "s/LO:N:vis/LO:n:vis:/L" | shed -e "s/^(\d+[\/\\]right)/$1yy/I;s/^(\d+[\/\\]left)/$1yy/I" | shed -e "s/-//B" | shed -e "s/^custos:/Xcustos:/I" | shed -k -e "s/LO:N:acc/LO:n:acc:/L" | autostem -r | tie -s | humtr -p | modori -m
!!!ENC: Berenika Jozajtis
!!!END: 2022-04-27
!!!ENC: Andrzej Kubiczek
!!!END: 2022-05-07
!!!ENC-modern: Andrzej Borzym
!!!END-modern: 2022-07-23
